!!! OTL: Literature116
!!! Chapter: 5
!!! Section: IV
!!! Page: 372
!!! Mode: 
!!! Encoder: DJB
**kern
*staff1
*I"Piano
=1-
*clefC4
*k[b-e-a-]
*E-:
*M3/4
2B-\
4g\
=2
2f\
4e-\
=3
4.d\
8d\
8e-\L
8c\J
=4
4B-\
4G/
4r
=5
8B-\L
8c\J
8d\L
8e-\J
8f\L
8e-\J
=6
4e-\
4d\
4r
=7
4f\
4e-\
4c\
=8
2B-\
4r
=9
2B-\
4g\
=10
2f\
4e-\
=11
4.d\
8d\
8e-\L
8c\J
=12
4B-\
4G/
4r
=13
!!linebreak:original
8B-\L
8c\J
8d\L
8e-\J
8f\L
8e-\J
=14
4e-\
4d\
4r
=15
4e-\
8g\L
8f\J
8e-\L
8d\J
=16
2e-\
4r
==
*-
